Simply-Cyan-Circles/scalable/apps/gnome-inhibit-applet.svg

<svg xmlns="http://www.w3.org/2000/svg" width="48" height="48" viewBox="0 0 12.7 12.7"><path fill="#5beedc" d="M6.344.073a6.29 6.29 0 0 0-6.29 6.29 6.29 6.29 0 0 0 6.29 6.288 6.29 6.29 0 0 0 6.29-6.289 6.29 6.29 0 0 0-6.29-6.29zm-.018.936a5.407 5.407 0 0 1 5.407 5.407 5.407 5.407 0 0 1-5.407 5.407A5.407 5.407 0 0 1 .92 6.416 5.407 5.407 0 0 1 6.326 1.01zM2.834 2.79v4.253l2.419 1.064.044-.054a.551.551 0 0 1 .43-.205c.308 0 .558.252.558.564 0 .311-.25.565-.557.565a.562.562 0 0 1-.551-.485l-.008-.051-2.335-1.028v2.5h7.032V2.789h-1.1v2.154l.041.028c.151.099.241.266.241.447a.53.53 0 0 1-.527.533.53.53 0 0 1-.526-.533c0-.23.145-.433.361-.506l.063-.02V2.788h-3.81v2.362h1.137l.023-.06a.548.548 0 0 1 .508-.356c.3 0 .544.248.544.551a.541.541 0 1 1-1.025.256l-.026-.049H4.272V2.79H2.834zM6.27 5.037a.276.28 0 0 0-.276.28.276.28 0 0 0 .276.279.276.28 0 0 0 .276-.28.276.28 0 0 0-.276-.279zm2.251.107a.276.28 0 0 0-.275.28.276.28 0 0 0 .275.28.276.28 0 0 0 .276-.28.276.28 0 0 0-.276-.28zm-1.72 1.15h2.506v.329L7.29 9.12h2.066v.364H6.752v-.33l2.016-2.497H6.801v-.363zm-1.087 1.84a.278.278 0 0 0-.276.28c0 .154.124.28.276.28a.278.278 0 0 0 .276-.28.278.278 0 0 0-.276-.28z"/></svg>

<?xml version="1.0" encoding="UTF-8" standalone="no"?>
<svg
   xmlns:dc="http://purl.org/dc/elements/1.1/"
   xmlns:cc="http://creativecommons.org/ns#"
   xmlns:rdf="http://www.w3.org/1999/02/22-rdf-syntax-ns#"
   xmlns:svg="http://www.w3.org/2000/svg"
   xmlns="http://www.w3.org/2000/svg"
   xmlns:sodipodi="http://sodipodi.sourceforge.net/DTD/sodipodi-0.dtd"
   xmlns:inkscape="http://www.inkscape.org/namespaces/inkscape"
   width="48"
   height="48"
   viewBox="0 0 12.7 12.7"
   version="1.1"
   id="svg4"
   sodipodi:docname="gnome-inhibit-applet.svg"
   inkscape:version="0.92.4 (5da689c313, 2019-01-14)">
  <metadata
     id="metadata10">
    <rdf:RDF>
      <cc:Work
         rdf:about="">
        <dc:format>image/svg+xml</dc:format>
        <dc:type
           rdf:resource="http://purl.org/dc/dcmitype/StillImage" />
        <dc:title></dc:title>
      </cc:Work>
    </rdf:RDF>
  </metadata>
  <defs
     id="defs8" />
  <sodipodi:namedview
     pagecolor="#ffffff"
     bordercolor="#666666"
     borderopacity="1"
     objecttolerance="10"
     gridtolerance="10"
     guidetolerance="10"
     inkscape:pageopacity="0"
     inkscape:pageshadow="2"
     inkscape:window-width="1087"
     inkscape:window-height="480"
     id="namedview6"
     showgrid="false"
     inkscape:zoom="4.9166667"
     inkscape:cx="2.1355932"
     inkscape:cy="24"
     inkscape:window-x="0"
     inkscape:window-y="25"
     inkscape:window-maximized="0"
     inkscape:current-layer="svg4" />
  <path
     d="m 6.344,0.073 a 6.29,6.29 0 0 0 -6.29,6.29 6.29,6.29 0 0 0 6.29,6.288 6.29,6.29 0 0 0 6.29,-6.289 6.29,6.29 0 0 0 -6.29,-6.29 z M 6.326,1.009 A 5.407,5.407 0 0 1 11.733,6.416 5.407,5.407 0 0 1 6.326,11.823 5.407,5.407 0 0 1 0.92,6.416 5.407,5.407 0 0 1 6.326,1.01 Z M 2.834,2.79 V 7.043 L 5.253,8.107 5.297,8.053 a 0.551,0.551 0 0 1 0.43,-0.205 c 0.308,0 0.558,0.252 0.558,0.564 0,0.311 -0.25,0.565 -0.557,0.565 A 0.562,0.562 0 0 1 5.177,8.492 L 5.169,8.441 2.834,7.413 v 2.5 H 9.866 V 2.789 h -1.1 V 4.943 L 8.807,4.971 C 8.958,5.07 9.048,5.237 9.048,5.418 A 0.53,0.53 0 0 1 8.521,5.951 0.53,0.53 0 0 1 7.995,5.418 c 0,-0.23 0.145,-0.433 0.361,-0.506 L 8.419,4.892 V 2.788 H 4.609 V 5.15 H 5.746 L 5.769,5.09 A 0.548,0.548 0 0 1 6.277,4.734 c 0.3,0 0.544,0.248 0.544,0.551 A 0.541,0.541 0 1 1 5.796,5.541 L 5.77,5.492 H 4.272 V 2.79 Z M 6.27,5.037 A 0.276,0.28 0 0 0 5.994,5.317 0.276,0.28 0 0 0 6.27,5.596 0.276,0.28 0 0 0 6.546,5.316 0.276,0.28 0 0 0 6.27,5.037 Z m 2.251,0.107 a 0.276,0.28 0 0 0 -0.275,0.28 0.276,0.28 0 0 0 0.275,0.28 0.276,0.28 0 0 0 0.276,-0.28 0.276,0.28 0 0 0 -0.276,-0.28 z m -1.72,1.15 H 9.307 V 6.623 L 7.29,9.12 H 9.356 V 9.484 H 6.752 V 9.154 L 8.768,6.657 H 6.801 Z m -1.087,1.84 a 0.278,0.278 0 0 0 -0.276,0.28 c 0,0.154 0.124,0.28 0.276,0.28 A 0.278,0.278 0 0 0 5.99,8.414 0.278,0.278 0 0 0 5.714,8.134 Z"
     id="path2"
     inkscape:connector-curvature="0"
     style="fill:#5beedc" />
</svg>
